X:4
T:Mississippi Mud Dance
T:to the tune of "The Battle of New Orleans"
C:Trad.; B music by Anthony Bearon
M:4/4
L:1/8
K:G
P:A
"G"B2B2 B2AG|"C"ABAG E2EG|"D"A2A2 A2GA|"G"Bd2B "D"A2GA|
"G"B2B2 B2AG|"C"ABAG E2EG"*"|"D"A2A2 A2GA|"G"BG"D"A2 "G"G4||
P:B - chorus
"G"Bd2B d2d2|Bd2B G2AB|"C"ce2c e2e2|"C"ce2c "D"A2Bc|
"G"Bd2B d2d2|Bd2B G2AB|"C"c2BA "G"G2F2|"D"A4 "G"G4:|
